X:1
T:Domine salvum fac
T:Domine salvum fac
T:Jean Maillard
C:Jean Maillard
%%score [ 1 [ 2 3 ] 4 ]
L:1/8
Q:1/4=120
M:2/2
K:F
V:1 treble nm="Soprano" snm="S"
V:2 treble-8 nm="Tenor 1" snm="T 1"
V:3 treble-8 nm="Tenor 2" snm="T 2"
V:4 bass nm="Bass" snm="B"
V:1
 z8 | G6 F2 | F8 | B8 | A4 G4- | G2 B3 A G2- | G2 FE F4- | F8- | F4 z4 | z8 | z4 A4- | %11
w: |Do- mi-|ne,|sal-|vum fac|_ re- * *|* * * gem,|_|||de-|
 A2 A2 B2 B2 | A2 F2 G2 B2- | B2 AG F2 G2 | A4 D4 | z2 F2 G2 B2 | A8 | G2 FG ABcB | B2 A2 GFED | %19
w: * si- de- ri-|um cor- dis e-||* ius|tri- bu- e|e-|||
 E4 D2 F2 | F4 F4 | G6 FE | F4 D4- | D4 z2 D2 | G2 G4 F2 | DEFG A3 G/A/ | B2 A3 G G2- | G2 F2 G4 | %28
w: * i, et|vo- lun-|ta- * *|* te|_ la-|bi- o- rum|e- * * * * * *||* * ius.|
 z2 F2 G2 A2 | B4 A4 | D4 G4 | A2 B2 c3 B | AG G4 F2 | G8 | E6 E2 | F4 G4 | F8 | F4 G4- | %38
w: No- li frau-|da- *|re, no-|li frau- d- *||re.|Po- su-|i _|sti|in ca-|
 G2 F2 F3 G | A2 G2 B2 A2 | G4 F2 D2- | DEFG A2 G2 | F3 E/D/ E4 | D8- | D4 z2 D2 | D2 D2 F3 G | %46
w: * pi- te _|_ _ e- *|* ius co-|* * * * ro- *||nam,|_ et|prae- ve- ni- sti|
 A4 G2 B2- | B2 A2 Bc d2- | d2 c2 d4 | z2 A2 B4 | A2 G4 F2 | G2 B2 A2 G2- |"^#" G2 F2 G2 E2- | %53
w: e- * *||* * um|in be-|ne- dic- ti-|o- ni- * *|* * bus, quo-|
 E2 E2 E4- | E4 G4 | G2 F4 F2 | B2 B2 A4 | F4 G2 B2- | B2 AG A4 | d8 | c2 B4 AG | F4 z2 F2 | F8 | %63
w: * ni- am|_ in|mi- se- ri-|cor- di- a|tu- * *|* * * a|spe-|ra- * * *|vit: da|e-|
 D4 D4 | G6 F2 | F8- | F4 z2 B2- | B2 B2 c4 | F3 E FG A2 | F2 A3 G F2 | E4 D4 | z8 | z8 | z8 | z8 | %75
w: i vic-|to- ri-|am|_ con-|* tra hos-|tes _ _ _ _|_ su- * *|* os,|||||
 z2 D2 D2 D2 | A3 A B2 G2 | B8 | A2 d4 c2 | B2 A4 GF | G2 A2 DEFG | A2 B3 A G2- | G2 F2 G4 | z8 | %84
w: et lon- gi-|tu- di- ne di-|e-|rum re- ple|e- * * *|* * um, _ _ _|_ e- * *|* * um||
 z2 D2 A4- | A2 F2 G2 A2- | A2 G2 A2 B2- | B2 B2 B4 | A8 | G4 F4 | G6 G2 | F8 |: F6 G2 | A6 GF | %94
w: se- men|_ que e- *|* * ius ma-|* ne at|sem-|per in|se- cu-|lum,|et in|se- * *|
 c2 c2 F4- | F2 G2 A2 B2- | BA G4 F2 | G8 :| %98
w: * cu- lum|_ se- * *|* * * cu-|li.|
V:2
 G4 d4- | d2 d2 d4- | d8 | f8 | f4 d4 | G3 A B2 c2 | d8- | d8- | d8 | z8 | z8 | z4 d4- | %12
w: Do- *|* mi- ne,|_|sal-|vum fac|re- * * *|gem,|_||||de-|
 d2 d2 G2 G2 | d6 B2 | c2 d4 cB | c2 d2 G4 | z2 c2 d2 f2 | e2 d4 c2 | d3 c BA d2- |"^#" d2 c2 d4 | %20
w: * si- de- ri-|um cor-|dis e- * *|* * ius|tri- bu- e|e- i, tri-|bu- * * * e|_ e- i|
 z2 d2 d2 d2 | e4 d3 c/B/ | A4 z4 | z2 D2 d2 d2- | d2 c2 d3 e | fg f3 e d2- | d2 c2 d4 | z4 z2 B2 | %28
w: et vo- lun-|ta- te _ _|_|la- bi- o-|* rum e- *||* * ius,|no-|
"^b" c2 d2 e2 c2 | d8 | z2 B2 c2 d2 | f4 g4 | fedc d4 | B8 | c6 c2 | d8 | d8 | d4 _e4 | e2 d2 d4 | %39
w: li frau- da- *|re,|no- li frau-|da- *||re.|Po su-|i-|sti|in ca-|* pi- te|
 d8 | d4 d3 e | f2 d4 B2 | d4 c3 B | A4 B4 | z2 G2 G2 G2 | B3 c d4- | d2 c2 e2 d2- | de f2 gfed | %48
w: e-|ius co- *|* ro- nam,|co- ro- *|* nam,|et prae- ve-|ni- sti e-|||
 e4 d2 d2 | f4 e2 d2- | d2 d2 d3 c | BA B2 cBAG | A2 A2 G4 | z2 c4 c2 | c4 d4 | d2 d4 d2 | %56
w: * um in|be- ne- dic-|* ti- o- *||* ni- bus,|quo- ni-|am in|mi- se- ri-|
 f2 f2 f3 e/d/ | c2 d4 e2 | f8- | f4 z2 f2- | fe d4 c2 | d4 z2 d2 | d4 c4 | B4 A4 | d6 d2 | d8 | %66
w: cor- di- a _ _|_ _ tu-|a|_ spe-|* * ra- *|vit: da|e- *|i vic-|to- ri-|am|
 z2 B4 B2 |"^b" e8 | d4 d3 c | de f3 e d2- | d2 c2 d4- | d8 | z8 | z8 | z8 | z8 | z4 z2 G2 | %77
w: con- tra|hos-|tes su- *||* * os,|_|||||et|
 G2 G2 d3 e | f2 d2 e4 | d4 d4 | c4 B2 d2- | dcBA G2 B2 | A4 z4 | z8 | z4 z2 A2 | d2 d2 c2 BA | %86
w: lon- gi- tu- di-|ne di- e-|rum re-|ple e- *||um||se-|men- que e- * *|
 B4 A2 f2- | f2 f2 f4 | f8 | d4 d4 | B6 c2 | d8 |: d6 d2 | f8 | e4 d3 c/B/ | A2 G2 c2 B2 | %96
w: * ius ma|_ ne- at|sem-|per in|se- cu-|lum,|et in|se-|cu- lum _ _|_ _ se- *|
"^b" d2 e2 d4 |"^-natural" B8 :| %98
w: * * cu-|li.|
V:3
 z4 G4 | B6 A2 | A8 | d8 | c4 B2 B2- | BAGF G4 | A4 z2 A2- | A2 A2 B2 B2 | A2 F2 G2 B2- | %9
w: Do-|* mi-|ne,|sal-|vum fac re-||gem, de-|* si- de- ri-|um cor- dis e-|
 B2 AG F2 G2 | A3 G F2 ED | E2 F2 G4 | F2 D2 _E4 | D4 z4 | z8 | z8 | z8 | z8 | z2 F2 G2 B2 | %19
w: ||||ius,|||||tri- bu- e|
 A4 D4 | A4 A2 A2 | c4 A2 A2 | d2 d3 c B2- | B2 A2 B3 A | B2 G2 A4- | A4 z2 F2 | G2 A2 B4 | %27
w: e- i|et vo- lun-|ta- te la-|bi- o- rum e-||* * ius,|_ no-|li frau- da-|
 A2 B3 A G2- |"^b" G2 F4 E2 |"^#" F2 G4 F2 | G4 z2 B2 | c2 d2 e3 d | c2 B2 A4 | G8 | G6 G2 | B8 | %36
w: |||re, no-|li frau- da- *||re.|Po- su-|i-|
 A4 F4 | B6 B2 | B6 A2- | A2 B2 G2 A2 | B4 A4 | D3 E F2 G2 | A2 B2 AG G2- |"^#" G2 F2 G4- | G4 z4 | %45
w: sti in|ca- pi-|te e-||* ius|co- * ro- *||* * nam|_|
 z2 D2 D2 D2 | F4 C2 G2- | G2 F2 B4 | A2 A2 B4- | B2 A2 G3 G | F2 G2 D4 | z8 | z4 z2 G2- | %53
w: et prae- ve-|ni- sti e-||um in be-|* ne- dic- ti-|o- ni- bus,||quo|
 G2 G2 G4- | G4 B4 | B2 A4 A2 | d2 d2 c4 | A4 B4 | c8 | B6 AG | A2 B2 G4 | A8 | z2 A2 A4 | F4 F4 | %64
w: _ ni- am|_ in|mi- se- ri-|cor- di- a-|* tu-|a|_ _ _|* spe- ra-|vit:|da e-|i vic-|
 B6 A2 | A2 F4 F2 | B4 G3 F | GA B4 A2 | B4 A4 | z2 D2 D2 D2 | A3 A B2 G2 | B4 A4 | z2 d4 c2 | %73
w: to- ri-|am con- tra|hos- tes _|_ _ su- *|* os,|et lon- gi-|tu- di- ne di-|e- rum|re- ple|
 B2 A4 GF | G2 A2 DEFG | A2 B3 A G2- |"^#" G2 F2 G4 | z8 | z8 | z8 | z8 | z4 z2 G2 | d6 B2 | %83
w: e- * * *|||* * um:|||||se-|men- que|
 c2 d4 c2 | d2 B2 A4 | D4 z4 | d6 d2 | d8 | c8 | B4 A4 | G6 G2 | A8 |: A6 B2 | c4 F4 | %94
w: e- * *||ius|ma- ne-|at|sem-|per in|se- cu-|lum,|et- in|se- cu-|
 G3 A Bc d2- | d2 cB A2 G2 | B2 c2 A4 | G8 :| %98
w: lum _ _ _ _|_ _ _ _ _|se- * cu-|li.|
V:4
 z8 | G,6 D,2 | D,8 | B,,8 | F,4 G,4 | _E,8 | D,8- | D,4 z2 D,2- | D,2 D,2 G,,2 G,,2 | D,6 B,,2 | %10
w: |Do- mi-|ne,|sal-|vum fac|re-|gem,|_ de-|* si- de- ri-|um cor-|
 C,2 D,4 C,B,, | C,2 D,2 G,,4 | D,4 z4 | z8 | z8 | z8 | z4 z2 F,2 | G,2 B,2 A,4 | D,4 z4 | %19
w: dis e- * *||ius||||tri-|bu- e e-|i|
 z4 z2 D,2 | D,6 D,2 | C,4 D,4 | D,4 G,2 G,2- | G,2 F,2 G,3 F, | G,2 E,2 D,4- | D,8 | z4 z2 B,,2 | %27
w: et|vo- lun-|ta- te|la- bi- o|_ rum e- *|* * ius,|_|no-|
"^b""^#" C,2 D,2 E,4- | E,2 D,2 C,4 | B,,2 G,,2 D,4 | z2 G,2 C,2 G,2 | F,2 E,D, C,4 | F,2 G,2 D,4 | %33
w: li frau- da-||* * re,|no- li frau-|da- * * *||
 G,,8 | C,6 C,2 | B,,4 G,,4 | D,8 |"^b" B,,4 E,4- | E,2 B,,2 B,,C,D,E, | F,2 G,4 F,2 | G,4 D,4 | %41
w: re.|Po- su-|i- *|sti|in _|_ pi- te _ _ _|_ _ _|e- ius|
"^b" z2 D,4 E,2 | D,2 B,,2 C,4 | D,4 G,,4- | G,,8- | G,,4 z4 | z8 | z8 | z8 | z8 | z2 G,2 B,2 A,2 | %51
w: co- ro-||* nam|_||||||et be- ne-|
 G,3 G, F,2 G,2 | D,4 z2 C,2- | C,2 C,2 C,4- | C,4 G,,4 | G,,2 D,4 D,2 | B,,2 B,,2 F,4- | %57
w: dic- ti- o- ni-|bus quo-|* ni- am|_ in|mi- se- ri-|cor- di- a|
 F,2 D,2 G,4 | F,8 | z2 B,,3 C,D,E, |"^b" F,2 G,2 E,4 | D,4 z2 D,2 | D,3 E, F,4 | B,,4 D,4 | %64
w: _ tu- *|a|spe- * * *|* * ra-|vit: da|e- * *|i vic-|
 G,,6 D,2 | D,4 z2 B,,2- |"^b" B,,2 B,,2 E,4- | E,2 D,2 C,4 | B,,3 C, D,4- | D,4 z4 | z4 z2 G,,2 | %71
w: to- ri-|am con|_ tra hos-|* tes su-|* * os,|_|et|
 G,,2 G,,2 D,3 E, | F,2 D,2 E,4 | D,4 D,4 | C,4 B,,2 D,2- | D,C,B,,A,, G,,2 B,,2 | A,,4 G,,4- | %77
w: lon- gi- tu di-|ne di- e-|rum re-|ple e- *||* um:|
 G,,8 | z8 | z8 | z8 | z8 | D,4 G,2 G,2 | F,2 E,D, E,4 | D,8 | z2 D,2 E,2 F,2 | G,4 D,2 B,,2- | %87
w: _|||||se- men- que|e- * * *|ius,|se- men- que|e- ius ma-|
 B,,2 B,,2 B,,4 | F,8 |"^b" G,4 D,4 |"^b" E,6 E,2 | D,8 |:"^#" D,6 G,2 | F,6 E,D, | %94
w: * ne- at|sem-|per in|se- cu-|lum,|et in|se- * *|
 C,2 C,2 B,,3 C, | D,2 E,2 F,2 G,2- | G,2 C,2 D,4 | G,,8 :| %98
w: * cu- lum _|_ _ _ _|* se- cu-|li.|

